public/img/IBC_logo.svg

<svg fill="none" height="60" viewBox="0 0 75 60" width="75" xmlns="http://www.w3.org/2000/svg"><path d="m16.7861 47.4589c-2.876 0-3.5216-.5879-3.5216-3.4687v-25.9857c0-2.8808.6456-3.4687 3.5216-3.4687v-1.3522h-16.7861v1.3522c2.87593 0 3.52155.5879 3.52155 3.4687v25.9857c0 2.8808-.64562 3.4687-3.52155 3.4687v1.3522h16.7861z" fill="#000"/><path d="m15.0056 48.8111h17.7838c8.2756 0 14.6144-3.4687 14.6144-9.9945 0-5.644-5.6344-8.172-11.7385-8.8187 4.9889-.5291 9.6256-3.6451 9.6256-8.172 0-5.8203-6.3975-8.6423-14.1449-8.6423h-16.1404v1.3522c2.8759 0 3.5215.5879 3.5215 3.4687v25.9857c0 2.8808-.6456 3.4687-3.5215 3.4687zm13.2645-34.0401h1.1151c3.815 0 6.9257 1.411 6.9257 7.1725 0 5.8791-3.1107 7.5841-6.867 7.5841h-1.1738zm2.4651 32.5115c-1.2913 0-2.4651-.4115-2.4651-2.7632v-13.5219h1.9368c4.578 0 7.5127 2.1752 7.5127 8.2895 0 6.2907-3.052 7.9956-6.3975 7.9956z" fill="#000"/><path d="m53.1507 27.8814c0-7.9956 4.3432-13.2868 9.9777-13.2868s9.3321 4.0566 9.9777 9.5242h1.2912l-.5282-10.994h-.8804c-.4108 1.1171-.7043 1.7638-1.7608 1.7638-1.4673 0-3.815-2.2929-8.9212-2.2929-10.3299 0-19.1338 8.1132-19.1338 19.1071 0 10.7588 8.6865 17.6962 18.0773 17.6962 7.1605 0 11.7385-3.7038 13.7341-7.0549l-.9978-.9407c-2.4064 3.0571-4.8128 3.7626-7.63 3.7626-6.5736 0-13.2058-6.5258-13.2058-17.2846z" fill="#000"/><path d="m8.16796 9.25003c-2.55433 0-4.62502-2.07069-4.62502-4.62502 0-2.55432 2.07069-4.62501031 4.62502-4.6250102 2.55434.00000011 4.62504 2.0706902 4.62504 4.6250102 0 2.55433-2.0707 4.62502-4.62504 4.62502z" fill="#000"/><path d="m22.5351 9.25003c-2.5543 0-4.625-2.07069-4.625-4.62502 0-2.55432 2.0707-4.62501031 4.625-4.6250102 2.5544.00000011 4.6251 2.0706902 4.6251 4.6250102 0 2.55433-2.0707 4.62502-4.6251 4.62502z" fill="#ef4124"/><path d="m36.9023 9.25003c-2.5543 0-4.625-2.07069-4.625-4.62502 0-2.55432 2.0707-4.62501031 4.625-4.6250102 2.5544.00000011 4.625 2.0706902 4.625 4.6250102 0 2.55433-2.0706 4.62502-4.625 4.62502z" fill="#003bf5"/><g fill="#000"><path d="m.775391 53.085h4.052689v.5195h-3.47643v2.5601h3.25916v.5385h-3.25916v3.1269h-.576259z"/><path d="m8.7838 53.085h.57626v6.745h-.57626z"/><path d="m13.6925 53.085h2.2767c.4723 0 .8974.0692 1.2753.2078.3778.1322.6959.3369.9541.614.2645.2708.466.6141.6046 1.0297.1449.4157.2173.9069.2173 1.4737 0 .5732-.0756 1.0738-.2267 1.5021-.1512.4283-.3685.7841-.6519 1.0675s-.6266.4975-1.0297.6424c-.403.1385-.8533.2078-1.3509.2078h-2.0688zm2.1066 6.2349c.9006 0 1.5619-.2488 1.9838-.7463.422-.5039.633-1.2187.633-2.1445 0-.9132-.1984-1.6154-.5952-2.1066-.3904-.4912-1.0076-.7369-1.8515-.7369h-1.7005v5.7343z"/><path d="m23.0651 53.085h.5763v4.1093c0 .7621.148 1.3352.444 1.7194.296.3841.7841.5762 1.4642.5762.3464 0 .6361-.0472.8692-.1417.2393-.1008.4314-.2456.5762-.4345.1512-.1953.2582-.4346.3212-.718.0693-.2897.1039-.6235.1039-1.0014v-4.1093h.5763v4.0999c0 .4975-.0567.9258-.1701 1.2848-.107.3526-.2676.6423-.4818.8691-.2078.2267-.466.3936-.7746.5006-.3023.1071-.6455.1606-1.0297.1606-.3968 0-.7495-.0535-1.058-.1606-.3023-.107-.5606-.2739-.7747-.5006-.2078-.2331-.3684-.5291-.4818-.888-.107-.3653-.1606-.7999-.1606-1.3037z"/><path d="m37.6868 57.6667c-.0441.3338-.1323.6424-.2645.9258-.126.2834-.2992.529-.5196.7368-.2205.2078-.4881.3716-.803.4913-.3149.1196-.6802.1794-1.0958.1794-.4409 0-.844-.0755-1.2092-.2267-.359-.1511-.6708-.3747-.9353-.6707-.2582-.3023-.4597-.6707-.6046-1.1053-.1448-.4408-.2172-.9478-.2172-1.5209 0-.5794.0787-1.0896.2361-1.5304.1575-.4472.3685-.8187.633-1.1147.2708-.3023.5825-.5291.9352-.6802.359-.1575.74-.2362 1.1431-.2362.4093 0 .762.0535 1.058.1606s.5448.2582.7463.4535c.2078.1889.3747.4156.5007.6801s.2267.5511.3023.8597l-.5479.1228c-.0693-.2771-.1575-.5259-.2645-.7463-.1008-.2204-.2331-.4062-.3968-.5574-.1574-.1511-.3495-.2676-.5763-.3495-.2267-.0819-.5006-.1228-.8218-.1228-.3716 0-.7022.0756-.992.2267-.2897.1512-.5353.3622-.7368.633s-.3558.592-.4629.9635c-.1071.3716-.1606.7778-.1606 1.2187 0 .4471.0504.8565.1512 1.2281.107.3652.2582.6833.4534.9541.2015.2708.4503.4818.7463.6329.296.1449.6361.2173 1.0203.2173.3652 0 .6707-.0441.9163-.1322.2519-.0945.4566-.2236.614-.3874.1638-.1637.2898-.3558.3779-.5762.0945-.2267.1638-.4692.2079-.7274z"/><path d="m41.7676 53.085h.5763v6.745h-.5763z"/><path d="m48.6885 53.085h.6802l2.664 6.745h-.6235l-.8125-2.0594h-3.1741l-.803 2.0594h-.6046zm1.7004 4.1566-1.3887-3.5237-1.3698 3.5237z"/><path d="m55.7087 53.085h2.1161c.485 0 .8817.0535 1.1903.1606.3149.107.5605.2456.7369.4156.1826.1701.3054.3653.3684.5857.0693.2204.1039.444.1039.6707 0 .4283-.0976.7936-.2928 1.0959-.189.3023-.5007.5322-.9353.6896l1.4549 3.1269h-.6708l-1.3509-2.9946c-.107.0125-.2173.0251-.3306.0377-.1134.0063-.233.0095-.359.0095h-1.4642v2.9474h-.5669zm2.1917 3.2875c.3401 0 .6203-.0315.8408-.0945.2267-.0693.4062-.1669.5384-.2929.1323-.1259.2236-.2771.274-.4534.0567-.1763.085-.3779.085-.6046 0-.2204-.0283-.4125-.085-.5763-.0567-.17-.1574-.3117-.3023-.4251-.1385-.1133-.3275-.1984-.5668-.255-.233-.0567-.529-.0851-.888-.0851h-1.5209v2.7869z"/><path d="m64.3629 53.085h.5763v6.745h-.5763z"/><path d="m71.2838 53.085h.6801l2.6641 6.745h-.6235l-.8125-2.0594h-3.1741l-.803 2.0594h-.6046zm1.7004 4.1566-1.3887-3.5237-1.3698 3.5237z"/></g></svg>

<svg width="75" height="60" viewBox="0 0 75 60" fill="none" xmlns="http://www.w3.org/2000/svg">
<path d="M16.7861 47.4589C13.9101 47.4589 13.2645 46.871 13.2645 43.9902V18.0045C13.2645 15.1237 13.9101 14.5358 16.7861 14.5358V13.1836H0V14.5358C2.87593 14.5358 3.52155 15.1237 3.52155 18.0045V43.9902C3.52155 46.871 2.87593 47.4589 0 47.4589V48.8111H16.7861V47.4589Z" fill="black"/>
<path d="M15.0056 48.8111H32.7894C41.065 48.8111 47.4038 45.3424 47.4038 38.8166C47.4038 33.1726 41.7694 30.6446 35.6653 29.9979C40.6542 29.4688 45.2909 26.3528 45.2909 21.8259C45.2909 16.0056 38.8934 13.1836 31.146 13.1836H15.0056V14.5358C17.8815 14.5358 18.5271 15.1237 18.5271 18.0045V43.9902C18.5271 46.871 17.8815 47.4589 15.0056 47.4589V48.8111ZM28.2701 14.771H29.3852C33.2002 14.771 36.3109 16.182 36.3109 21.9435C36.3109 27.8226 33.2002 29.5276 29.4439 29.5276H28.2701V14.771ZM30.7352 47.2825C29.4439 47.2825 28.2701 46.871 28.2701 44.5193V30.9974H30.2069C34.7849 30.9974 37.7196 33.1726 37.7196 39.2869C37.7196 45.5776 34.6676 47.2825 31.3221 47.2825H30.7352Z" fill="black"/>
<path d="M53.1507 27.8814C53.1507 19.8858 57.4939 14.5946 63.1284 14.5946C68.7629 14.5946 72.4605 18.6512 73.1061 24.1188H74.3973L73.8691 13.1248H72.9887C72.5779 14.2419 72.2844 14.8886 71.2279 14.8886C69.7606 14.8886 67.4129 12.5957 62.3067 12.5957C51.9768 12.5957 43.1729 20.7089 43.1729 31.7028C43.1729 42.4616 51.8594 49.399 61.2502 49.399C68.4107 49.399 72.9887 45.6952 74.9843 42.3441L73.9865 41.4034C71.5801 44.4605 69.1737 45.166 66.3565 45.166C59.7829 45.166 53.1507 38.6402 53.1507 27.8814Z" fill="black"/>
<path d="M8.16796 9.25003C5.61363 9.25003 3.54294 7.17934 3.54294 4.62501C3.54294 2.07069 5.61363 -3.13819e-07 8.16796 -2.02166e-07C10.7223 -9.05127e-08 12.793 2.07069 12.793 4.62501C12.793 7.17934 10.7223 9.25003 8.16796 9.25003Z" fill="black"/>
<path d="M22.5351 9.25003C19.9808 9.25003 17.9101 7.17934 17.9101 4.62501C17.9101 2.07069 19.9808 -3.13819e-07 22.5351 -2.02166e-07C25.0895 -9.05127e-08 27.1602 2.07069 27.1602 4.62501C27.1602 7.17934 25.0895 9.25003 22.5351 9.25003Z" fill="#EF4124"/>
<path d="M36.9023 9.25003C34.348 9.25003 32.2773 7.17934 32.2773 4.62501C32.2773 2.07069 34.348 -3.13819e-07 36.9023 -2.02166e-07C39.4567 -9.05127e-08 41.5273 2.07069 41.5273 4.62501C41.5273 7.17934 39.4567 9.25003 36.9023 9.25003Z" fill="#003BF5"/>
<path d="M0.775391 53.085H4.82808V53.6045H1.35165V56.1646H4.61081V56.7031H1.35165V59.83H0.775391V53.085Z" fill="black"/>
<path d="M8.7838 53.085H9.36006V59.83H8.7838V53.085Z" fill="black"/>
<path d="M13.6925 53.085H15.9692C16.4415 53.085 16.8666 53.1542 17.2445 53.2928C17.6223 53.425 17.9404 53.6297 18.1986 53.9068C18.4631 54.1776 18.6646 54.5209 18.8032 54.9365C18.9481 55.3522 19.0205 55.8434 19.0205 56.4102C19.0205 56.9834 18.9449 57.484 18.7938 57.9123C18.6426 58.3406 18.4253 58.6964 18.1419 58.9798C17.8585 59.2632 17.5153 59.4773 17.1122 59.6222C16.7092 59.7607 16.2589 59.83 15.7613 59.83H13.6925V53.085ZM15.7991 59.3199C16.6997 59.3199 17.361 59.0711 17.7829 58.5736C18.2049 58.0697 18.4159 57.3549 18.4159 56.4291C18.4159 55.5159 18.2175 54.8137 17.8207 54.3225C17.4303 53.8313 16.8131 53.5856 15.9692 53.5856H14.2687V59.3199H15.7991Z" fill="black"/>
<path d="M23.0651 53.085H23.6414V57.1943C23.6414 57.9564 23.7894 58.5295 24.0854 58.9137C24.3814 59.2978 24.8695 59.4899 25.5496 59.4899C25.896 59.4899 26.1857 59.4427 26.4188 59.3482C26.6581 59.2474 26.8502 59.1026 26.995 58.9137C27.1462 58.7184 27.2532 58.4791 27.3162 58.1957C27.3855 57.906 27.4201 57.5722 27.4201 57.1943V53.085H27.9964V57.1849C27.9964 57.6824 27.9397 58.1107 27.8263 58.4697C27.7193 58.8223 27.5587 59.112 27.3445 59.3388C27.1367 59.5655 26.8785 59.7324 26.5699 59.8394C26.2676 59.9465 25.9244 60 25.5402 60C25.1434 60 24.7907 59.9465 24.4822 59.8394C24.1799 59.7324 23.9216 59.5655 23.7075 59.3388C23.4997 59.1057 23.3391 58.8097 23.2257 58.4508C23.1187 58.0855 23.0651 57.6509 23.0651 57.1471V53.085Z" fill="black"/>
<path d="M37.6868 57.6667C37.6427 58.0005 37.5545 58.3091 37.4223 58.5925C37.2963 58.8759 37.1231 59.1215 36.9027 59.3293C36.6822 59.5371 36.4146 59.7009 36.0997 59.8206C35.7848 59.9402 35.4195 60 35.0039 60C34.563 60 34.1599 59.9245 33.7947 59.7733C33.4357 59.6222 33.1239 59.3986 32.8594 59.1026C32.6012 58.8003 32.3997 58.4319 32.2548 57.9973C32.11 57.5565 32.0376 57.0495 32.0376 56.4764C32.0376 55.897 32.1163 55.3868 32.2737 54.946C32.4312 54.4988 32.6422 54.1273 32.9067 53.8313C33.1775 53.529 33.4892 53.3022 33.8419 53.1511C34.2009 52.9936 34.5819 52.9149 34.985 52.9149C35.3943 52.9149 35.747 52.9684 36.043 53.0755C36.339 53.1826 36.5878 53.3337 36.7893 53.529C36.9971 53.7179 37.164 53.9446 37.29 54.2091C37.416 54.4736 37.5167 54.7602 37.5923 55.0688L37.0444 55.1916C36.9751 54.9145 36.8869 54.6657 36.7799 54.4453C36.6791 54.2249 36.5468 54.0391 36.3831 53.8879C36.2257 53.7368 36.0336 53.6203 35.8068 53.5384C35.5801 53.4565 35.3062 53.4156 34.985 53.4156C34.6134 53.4156 34.2828 53.4912 33.993 53.6423C33.7033 53.7935 33.4577 54.0045 33.2562 54.2753C33.0547 54.5461 32.9004 54.8673 32.7933 55.2388C32.6862 55.6104 32.6327 56.0166 32.6327 56.4575C32.6327 56.9046 32.6831 57.314 32.7839 57.6856C32.8909 58.0508 33.0421 58.3689 33.2373 58.6397C33.4388 58.9105 33.6876 59.1215 33.9836 59.2726C34.2796 59.4175 34.6197 59.4899 35.0039 59.4899C35.3691 59.4899 35.6746 59.4458 35.9202 59.3577C36.1721 59.2632 36.3768 59.1341 36.5342 58.9703C36.698 58.8066 36.824 58.6145 36.9121 58.3941C37.0066 58.1674 37.0759 57.9249 37.12 57.6667H37.6868Z" fill="black"/>
<path d="M41.7676 53.085H42.3439V59.83H41.7676V53.085Z" fill="black"/>
<path d="M48.6885 53.085H49.3687L52.0327 59.83H51.4092L50.5967 57.7706H47.4226L46.6196 59.83H46.015L48.6885 53.085ZM50.3889 57.2416L49.0002 53.7179L47.6304 57.2416H50.3889Z" fill="black"/>
<path d="M55.7087 53.085H57.8248C58.3098 53.085 58.7065 53.1385 59.0151 53.2456C59.33 53.3526 59.5756 53.4912 59.752 53.6612C59.9346 53.8313 60.0574 54.0265 60.1204 54.2469C60.1897 54.4673 60.2243 54.6909 60.2243 54.9176C60.2243 55.3459 60.1267 55.7112 59.9315 56.0135C59.7425 56.3158 59.4308 56.5457 58.9962 56.7031L60.4511 59.83H59.7803L58.4294 56.8354C58.3224 56.8479 58.2121 56.8605 58.0988 56.8731C57.9854 56.8794 57.8658 56.8826 57.7398 56.8826H56.2756V59.83H55.7087V53.085ZM57.9004 56.3725C58.2405 56.3725 58.5207 56.341 58.7412 56.278C58.9679 56.2087 59.1474 56.1111 59.2796 55.9851C59.4119 55.8592 59.5032 55.708 59.5536 55.5317C59.6103 55.3554 59.6386 55.1538 59.6386 54.9271C59.6386 54.7067 59.6103 54.5146 59.5536 54.3508C59.4969 54.1808 59.3962 54.0391 59.2513 53.9257C59.1128 53.8124 58.9238 53.7273 58.6845 53.6707C58.4515 53.614 58.1555 53.5856 57.7965 53.5856H56.2756V56.3725H57.9004Z" fill="black"/>
<path d="M64.3629 53.085H64.9392V59.83H64.3629V53.085Z" fill="black"/>
<path d="M71.2838 53.085H71.9639L74.628 59.83H74.0045L73.192 57.7706H70.0179L69.2149 59.83H68.6103L71.2838 53.085ZM72.9842 57.2416L71.5955 53.7179L70.2257 57.2416H72.9842Z" fill="black"/>
</svg>
